urcenter/urcenter/img/icons/icon-1.svg

<svg width="44" height="42" viewBox="0 0 44 42" fill="none" xmlns="http://www.w3.org/2000/svg">
<mask id="path-1-inside-1" fill="white">
<path d="M40 22C40 33.0457 31.0457 42 20 42C8.9543 42 0 33.0457 0 22C0 10.9543 8.9543 2 20 2C31.0457 2 40 10.9543 40 22Z"/>
</mask>
<path d="M40 22C40 33.0457 31.0457 42 20 42C8.9543 42 0 33.0457 0 22C0 10.9543 8.9543 2 20 2C31.0457 2 40 10.9543 40 22Z" fill="#F4F7FA"/>
<path d="M39.6 22C39.6 32.8248 30.8248 41.6 20 41.6V42.4C31.2666 42.4 40.4 33.2666 40.4 22H39.6ZM20 41.6C9.17522 41.6 0.4 32.8248 0.4 22H-0.4C-0.4 33.2666 8.73339 42.4 20 42.4V41.6ZM0.4 22C0.4 11.1752 9.17522 2.4 20 2.4V1.6C8.73339 1.6 -0.4 10.7334 -0.4 22H0.4ZM20 2.4C30.8248 2.4 39.6 11.1752 39.6 22H40.4C40.4 10.7334 31.2666 1.6 20 1.6V2.4Z" fill="black" mask="url(#path-1-inside-1)"/>
<g clip-path="url(#clip0)">
<path d="M25.1994 24.7151L25.1995 24.7152C25.6065 25.02 25.6891 25.5971 25.3837 26.0028L25.3829 26.0038C25.203 26.2461 24.9278 26.3725 24.6458 26.3725C24.4534 26.3725 24.2604 26.3128 24.0945 26.1883L24.0945 26.1883L19.6117 22.8262L19.6113 22.8259C19.3799 22.6533 19.2435 22.38 19.2435 22.0897V15.3655C19.2435 14.8562 19.6549 14.4448 20.1642 14.4448C20.6735 14.4448 21.0849 14.8562 21.0849 15.3655V21.5293V21.6293L21.1649 21.6893L25.1994 24.7151Z" fill="#F4F7FA" stroke="black" stroke-width="0.4"/>
<path d="M5.89617 22C5.89617 14.1323 12.2965 7.73192 20.1643 7.73192C28.032 7.73192 34.4323 14.1323 34.4323 22C34.4323 29.8677 28.032 36.2681 20.1643 36.2681C12.2965 36.2681 5.89617 29.8677 5.89617 22ZM7.73753 22C7.73753 28.8514 13.3129 34.4267 20.1643 34.4267C27.0156 34.4267 32.591 28.8514 32.591 22C32.591 15.1486 27.0168 9.57329 20.1643 9.57329C13.3129 9.57329 7.73753 15.1486 7.73753 22Z" fill="#F4F7FA" stroke="black" stroke-width="0.4"/>
</g>
<mask id="path-6-inside-2" fill="white">
<path fill-rule="evenodd" clip-rule="evenodd" d="M26.7747 0.301929C31.9987 1.62446 35.9168 7.13573 35.9168 13.7337C35.9168 20.3317 31.9987 25.8429 26.7748 27.1655C27.7027 27.3633 28.6653 27.4674 29.6523 27.4674C37.2372 27.4674 43.386 21.3186 43.386 13.7337C43.386 6.14877 37.2372 -2.28882e-05 29.6523 -2.28882e-05C28.6653 -2.28882e-05 27.7027 0.10409 26.7747 0.301929Z"/>
</mask>
<path fill-rule="evenodd" clip-rule="evenodd" d="M26.7747 0.301929C31.9987 1.62446 35.9168 7.13573 35.9168 13.7337C35.9168 20.3317 31.9987 25.8429 26.7748 27.1655C27.7027 27.3633 28.6653 27.4674 29.6523 27.4674C37.2372 27.4674 43.386 21.3186 43.386 13.7337C43.386 6.14877 37.2372 -2.28882e-05 29.6523 -2.28882e-05C28.6653 -2.28882e-05 27.7027 0.10409 26.7747 0.301929Z" fill="#7247FF"/>
<path fill-rule="evenodd" clip-rule="evenodd" d="M26.7747 0.301929C31.9987 1.62446 35.9168 7.13573 35.9168 13.7337C35.9168 20.3317 31.9987 25.8429 26.7748 27.1655C27.7027 27.3633 28.6653 27.4674 29.6523 27.4674C37.2372 27.4674 43.386 21.3186 43.386 13.7337C43.386 6.14877 37.2372 -2.28882e-05 29.6523 -2.28882e-05C28.6653 -2.28882e-05 27.7027 0.10409 26.7747 0.301929Z" fill="url(#paint0_linear)"/>
<path d="M26.7747 0.301929L26.7121 0.00852394L26.7011 0.592754L26.7747 0.301929ZM26.7748 27.1655L26.7012 26.8747L26.7122 27.4589L26.7748 27.1655ZM26.7011 0.592754C31.7646 1.87466 35.6168 7.24268 35.6168 13.7337H36.2168C36.2168 7.02878 32.2328 1.37426 26.8483 0.0111046L26.7011 0.592754ZM35.6168 13.7337C35.6168 20.2247 31.7646 25.5927 26.7012 26.8747L26.8484 27.4563C32.2328 26.0931 36.2168 20.4386 36.2168 13.7337H35.6168ZM29.6523 27.1674C28.6865 27.1674 27.7448 27.0655 26.8373 26.8721L26.7122 27.4589C27.6606 27.6611 28.6442 27.7674 29.6523 27.7674V27.1674ZM43.086 13.7337C43.086 21.1529 37.0715 27.1674 29.6523 27.1674V27.7674C37.4029 27.7674 43.686 21.4843 43.686 13.7337H43.086ZM29.6523 0.299976C37.0715 0.299976 43.086 6.31446 43.086 13.7337H43.686C43.686 5.98309 37.4029 -0.300022 29.6523 -0.300022V0.299976ZM26.8372 0.595335C27.7448 0.401852 28.6864 0.299976 29.6523 0.299976V-0.300022C28.6441 -0.300022 27.6605 -0.193672 26.7121 0.00852394L26.8372 0.595335Z" fill="black" mask="url(#path-6-inside-2)"/>
<defs>
<linearGradient id="paint0_linear" x1="35.0803" y1="27.4674" x2="35.0803" y2="-2.28882e-05" gradientUnits="userSpaceOnUse">
<stop stop-color="#4614E8"/>
<stop offset="1" stop-color="#BCA7FF"/>
</linearGradient>
<clipPath id="clip0">
<rect x="5.69617" y="7.53192" width="28.9362" height="28.9362" fill="white"/>
</clipPath>
</defs>
</svg>

<svg width="44" height="42" fill="none" xmlns="http://www.w3.org/2000/svg"><mask id="a" fill="#fff"><path d="M40 22c0 11.046-8.954 20-20 20S0 33.046 0 22 8.954 2 20 2s20 8.954 20 20z"/></mask><path d="M40 22c0 11.046-8.954 20-20 20S0 33.046 0 22 8.954 2 20 2s20 8.954 20 20z" fill="#F4F7FA"/><path d="M39.6 22c0 10.825-8.775 19.6-19.6 19.6v.8c11.267 0 20.4-9.133 20.4-20.4h-.8zM20 41.6C9.175 41.6.4 32.825.4 22h-.8c0 11.267 9.133 20.4 20.4 20.4v-.8zM.4 22C.4 11.175 9.175 2.4 20 2.4v-.8C8.733 1.6-.4 10.733-.4 22h.8zM20 2.4c10.825 0 19.6 8.775 19.6 19.6h.8c0-11.267-9.133-20.4-20.4-20.4v.8z" fill="#000" mask="url(#a)"/><g clip-path="url(#clip0)" fill="#F4F7FA" stroke="#000" stroke-width=".4"><path d="M25.2 24.715h0c.407.305.49.882.184 1.288h-.001a.912.912 0 01-.737.37.914.914 0 01-.552-.185h0l-4.482-3.362h0a.918.918 0 01-.368-.736v-6.724a.92.92 0 111.84 0v6.263l.08.06 4.035 3.026z"/><path d="M5.896 22c0-7.868 6.4-14.268 14.268-14.268S34.432 14.132 34.432 22s-6.4 14.268-14.268 14.268S5.896 29.868 5.896 22zm1.842 0c0 6.851 5.575 12.427 12.426 12.427 6.852 0 12.427-5.576 12.427-12.427S27.017 9.573 20.164 9.573C13.313 9.573 7.738 15.15 7.738 22z"/></g><mask id="b" fill="#fff"><path fill-rule="evenodd" clip-rule="evenodd" d="M26.775.302c5.224 1.322 9.142 6.834 9.142 13.432 0 6.598-3.918 12.109-9.142 13.432.928.197 1.89.301 2.877.301 7.585 0 13.734-6.148 13.734-13.733C43.386 6.149 37.237 0 29.652 0c-.987 0-1.95.104-2.877.302z"/></mask><path fill-rule="evenodd" clip-rule="evenodd" d="M26.775.302c5.224 1.322 9.142 6.834 9.142 13.432 0 6.598-3.918 12.109-9.142 13.432.928.197 1.89.301 2.877.301 7.585 0 13.734-6.148 13.734-13.733C43.386 6.149 37.237 0 29.652 0c-.987 0-1.95.104-2.877.302z" fill="#7247FF"/><path fill-rule="evenodd" clip-rule="evenodd" d="M26.775.302c5.224 1.322 9.142 6.834 9.142 13.432 0 6.598-3.918 12.109-9.142 13.432.928.197 1.89.301 2.877.301 7.585 0 13.734-6.148 13.734-13.733C43.386 6.149 37.237 0 29.652 0c-.987 0-1.95.104-2.877.302z" fill="url(#paint0_linear)"/><path d="M26.775.302l-.063-.293-.01.584.073-.291zm0 26.864l-.074-.291.011.584.063-.293zM26.7.593c5.064 1.282 8.916 6.65 8.916 13.14h.6c0-6.704-3.984-12.359-9.369-13.722L26.7.593zm8.916 13.14c0 6.492-3.852 11.86-8.916 13.142l.147.581c5.385-1.363 9.369-7.017 9.369-13.722h-.6zm-5.965 13.434c-.966 0-1.907-.102-2.815-.295l-.125.587c.949.202 1.932.308 2.94.308v-.6zm13.434-13.433c0 7.419-6.014 13.433-13.434 13.433v.6c7.75 0 14.034-6.283 14.034-14.033h-.6zM29.652.3c7.42 0 13.434 6.014 13.434 13.434h.6C43.686 5.984 37.403-.3 29.652-.3v.6zm-2.815.295A13.49 13.49 0 0129.652.3v-.6c-1.008 0-1.992.106-2.94.309l.125.586z" fill="#000" mask="url(#b)"/><defs><linearGradient id="paint0_linear" x1="35.08" y1="27.467" x2="35.08" y2="0" gradientUnits="userSpaceOnUse"><stop stop-color="#4614E8"/><stop offset="1" stop-color="#BCA7FF"/></linearGradient><clipPath id="clip0"><path fill="#fff" d="M5.696 7.532h28.936v28.936H5.696z"/></clipPath></defs></svg>
